; generated by Slic3r 1.1.7 on 2015-04-05 at 18:18:31

; perimeters extrusion width = 0.50mm
; infill extrusion width = 1.02mm
; solid infill extrusion width = 0.85mm
; top infill extrusion width = 0.85mm

G21 ; set units to millimeters
M107
M190 S80 ; wait for bed temperature to be reached
M104 S220 ; set temperature
G28 ; home all axes
G1 Z5 F5000 ; lift nozzle

M109 S220 ; wait for temperature to be reached
G90 ; use absolute coordinates
G92 E0
M82 ; use absolute distances for extrusion
G1 F1800.000 E-1.00000
G92 E0
G1 Z0.200 F7800.000
G1 X83.789 Y85.800 F7800.000
G1 E1.00000 F1800.000
G1 X85.537 Y84.349 E1.03214 F1080.000
G1 X88.750 Y83.500 E1.07915
G1 X111.250 Y83.500 E1.39746
G1 X113.487 Y83.897 E1.42959
G1 X115.450 Y85.039 E1.46173 F1080.000
G1 X116.901 Y86.787 E1.49387
G1 X117.750 Y90.000 E1.54088
G1 X117.750 Y110.000 E1.82382
G1 X117.353 Y112.237 E1.85595
G1 X116.211 Y114.200 E1.88809
G1 X114.463 Y115.651 E1.92023
G1 X111.250 Y116.500 E1.96724
G1 X88.750 Y116.500 E2.28555
G1 X86.513 Y116.103 E2.31768
G1 X84.550 Y114.961 E2.34982
G1 X83.099 Y113.213 E2.38196
G1 X82.250 Y110.000 E2.42897
G1 X82.250 Y90.000 E2.71191
G1 X82.647 Y87.763 E2.74405
G1 X83.752 Y85.865 E2.77512
G1 F1800.000 E1.77512
G92 E0
G1 X107.564 Y102.642 F7800.000
G1 E1.00000 F1800.000
G1 X106.818 Y103.259 E1.01369 F540.000
G1 X105.943 Y103.671 E1.02738
G1 X104.992 Y103.852 E1.04106
G1 X104.027 Y103.792 E1.05475
G1 X103.107 Y103.493 E1.06844
G1 X102.290 Y102.974 E1.08213
G1 X101.627 Y102.269 E1.09582
G1 X101.161 Y101.421 E1.10951
G1 X100.921 Y100.484 E1.12319
G1 X100.921 Y99.516 E1.13688
G1 X101.161 Y98.579 E1.15057
G1 X101.627 Y97.731 E1.16426
G1 X102.290 Y97.026 E1.17794
G1 X103.106 Y96.507 E1.19163
G1 X104.027 Y96.208 E1.20532
G1 X104.992 Y96.148 E1.21901
G1 X105.772 Y96.296 E1.23023
G1 X105.943 Y96.329 E1.23270 F540.000
G1 X106.818 Y96.741 E1.24639
G1 X107.564 Y97.358 E1.26007
G1 X108.132 Y98.140 E1.27376
G1 X108.489 Y99.040 E1.28745
G1 X108.610 Y100.000 E1.30114
G1 X108.489 Y100.960 E1.31483
G1 X108.132 Y101.860 E1.32851
G1 X107.608 Y102.582 E1.34114
G1 X107.196 Y102.297 F7800.000
G1 X106.548 Y102.834 E1.35304 F540.000
G1 X105.787 Y103.192 E1.36494
G1 X104.961 Y103.349 E1.37684
G1 X104.121 Y103.297 E1.38875
G1 X103.321 Y103.037 E1.40065
G1 X102.611 Y102.586 E1.41255
G1 X102.035 Y101.973 E1.42445
G1 X101.630 Y101.235 E1.43635
G1 X101.421 Y100.421 E1.44825
G1 X101.421 Y99.579 E1.46015
G1 X101.630 Y98.765 E1.47205
G1 X102.035 Y98.027 E1.48395
G1 X102.611 Y97.414 E1.49585
G1 X103.321 Y96.963 E1.50775
G1 X104.121 Y96.703 E1.51966
G1 X104.850 Y96.658 E1.52999
G1 X104.961 Y96.651 E1.53156 F540.000
G1 X105.787 Y96.808 E1.54346
G1 X106.548 Y97.166 E1.55536
G1 X107.196 Y97.703 E1.56726
G1 X107.691 Y98.383 E1.57916
G1 X108.001 Y99.165 E1.59106
G1 X108.106 Y100.000 E1.60296
G1 X108.001 Y100.835 E1.61486
G1 X107.691 Y101.617 E1.62676
G1 X107.240 Y102.237 E1.63760
G1 X106.829 Y101.952 F7800.000
G1 X106.278 Y102.408 E1.64772 F378.000
G1 X105.631 Y102.712 E1.65783
G1 X104.929 Y102.846 E1.66795
G1 X104.216 Y102.801 E1.67806
G1 X103.536 Y102.581 E1.68817
G1 X102.932 Y102.197 E1.69829
G1 X102.443 Y101.676 E1.70840
G1 X102.098 Y101.050 E1.71851
G1 X101.921 Y100.357 E1.72863
G1 X101.921 Y99.643 E1.73874
G1 X102.098 Y98.950 E1.74885
G1 X102.443 Y98.324 E1.75897
G1 X102.932 Y97.803 E1.76908
G1 X103.536 Y97.419 E1.77920
G1 X104.216 Y97.199 E1.78931
G1 X104.929 Y97.154 E1.79942
G1 X105.584 Y97.279 E1.80886
G1 X106.278 Y97.592 E1.81963 F378.000
G1 X106.829 Y98.048 E1.82974
G1 X107.249 Y98.626 E1.83986
G1 X107.512 Y99.291 E1.84997
G1 X107.602 Y100.000 E1.86009
G1 X107.512 Y100.709 E1.87020
G1 X107.249 Y101.374 E1.88031
G1 X106.873 Y101.892 E1.88937
G1 F1800.000 E0.88937
G92 E0
G1 X105.661 Y96.785 F7800.000
G1 X110.000 Y108.750 F7800.000
G1 E1.00000 F1800.000
G1 X90.000 Y108.750 E1.28294 F540.000
G1 X90.000 Y91.250 E1.53052
G1 X110.000 Y91.250 E1.81346
G1 X110.000 Y108.675 E2.05997
G1 X110.500 Y109.250 F7800.000
G1 X89.500 Y109.250 E2.35706 F540.000
G1 X89.500 Y90.750 E2.61878
G1 X110.500 Y90.750 E2.91587
G1 X110.500 Y109.175 E3.17653
G1 X111.000 Y109.750 F7800.000
G1 X89.000 Y109.750 E3.48777 F378.000
G1 X89.000 Y90.250 E3.76364
G1 X111.000 Y90.250 E4.07487
G1 X111.000 Y109.675 E4.34968
G1 X110.567 Y109.500 F7800.000
G1 X109.509 Y91.701 F7800.000
G1 X109.549 Y91.741 E4.35097 F1080.000
G1 X109.549 Y92.890 E4.37721
G1 X108.360 Y91.701 E4.41560
G1 X107.211 Y91.701 E4.44184
G1 X109.549 Y94.039 E4.51734
G1 X109.549 Y95.188 E4.54358
G1 X106.062 Y91.701 E4.65618
G1 X104.913 Y91.701 E4.68242
G1 X109.549 Y96.337 E4.83212
G1 X109.549 Y97.485 E4.85836
G1 X103.765 Y91.701 E5.04517
G1 X102.616 Y91.701 E5.07141
G1 X109.549 Y98.634 E5.29532
G1 X108.963 Y99.197 E5.31388
G1 X109.549 Y99.783 E5.33281
G1 X109.014 Y100.397 E5.35140
G1 X109.549 Y100.932 E5.36868
G1 X108.819 Y101.351 E5.38790
G1 X109.549 Y102.081 E5.41149
G1 X108.475 Y102.156 E5.43608
G1 X109.549 Y103.230 E5.47078
G1 X109.549 Y104.379 E5.49702
G1 X107.991 Y102.821 E5.54733
G1 X107.391 Y103.370 E5.56590
G1 X109.549 Y105.528 E5.63558
G1 X109.549 Y106.677 E5.66182
G1 X106.690 Y103.818 E5.75415
G1 X105.868 Y104.144 E5.77436
G1 X109.549 Y107.826 E5.89325
G1 X108.874 Y108.299 E5.91208
G1 X104.871 Y104.296 E6.04135
G1 X103.530 Y104.104 E6.07229
G1 X107.725 Y108.299 E6.20776
G1 X106.576 Y108.299 E6.23400
G1 X90.451 Y92.174 E6.75475
G1 X91.126 Y91.701 E6.77358
G1 X100.644 Y101.218 E7.08093
G1 X100.470 Y99.895 E7.11140
G1 X92.275 Y91.701 E7.37603
G1 X93.424 Y91.701 E7.40227
G1 X100.615 Y98.892 E7.63450
G1 X100.932 Y98.060 E7.65483
G1 X94.573 Y91.701 E7.86019
G1 X95.722 Y91.701 E7.88643
G1 X101.369 Y97.348 E8.06879
G1 X101.925 Y96.755 E8.08735
G1 X96.871 Y91.701 E8.25057
G1 X98.020 Y91.701 E8.27681
G1 X102.609 Y96.289 E8.42500
G1 X103.405 Y95.937 E8.44488
G1 X99.169 Y91.701 E8.58167
G1 X100.318 Y91.701 E8.60791
G1 X104.353 Y95.736 E8.73822
G1 X105.563 Y95.798 E8.76590
G1 X101.467 Y91.701 E8.89820
G1 X90.451 Y93.323 F7800.000
G1 X105.427 Y108.299 E9.38184 F1080.000
G1 X104.278 Y108.299 E9.40808
G1 X90.451 Y94.472 E9.85462
G1 X90.451 Y95.621 E9.88085
G1 X103.129 Y108.299 E10.29029
G1 X101.980 Y108.299 E10.31652
G1 X90.451 Y96.770 E10.68885
G1 X90.451 Y97.919 E10.71509
G1 X100.831 Y108.299 E11.05032
G1 X99.682 Y108.299 E11.07655
G1 X90.451 Y99.068 E11.37467
G1 X90.451 Y100.217 E11.40091
G1 X98.533 Y108.299 E11.66193
G1 X97.384 Y108.299 E11.68817
G1 X90.451 Y101.366 E11.91208
G1 X90.451 Y102.515 E11.93832
G1 X96.235 Y108.299 E12.12513
G1 X95.087 Y108.299 E12.15136
G1 X90.451 Y103.663 E12.30107
G1 X90.451 Y104.812 E12.32731
G1 X93.938 Y108.299 E12.43991
G1 X92.789 Y108.299 E12.46615
G1 X90.451 Y105.961 E12.54165
G1 X90.451 Y107.110 E12.56788
G1 X91.640 Y108.299 E12.60628
G1 X90.491 Y108.299 E12.63251
G1 X90.451 Y108.259 E12.63381
M106 S255
G1 F1800.000 E11.63381
G92 E0
G1 Z0.400 F7800.000
G1 X106.818 Y103.259 F7800.000
G1 E1.00000 F1800.000
G1 X105.943 Y103.671 E1.01369 F1048.731
G1 X104.992 Y103.852 E1.02738
G1 X104.027 Y103.792 E1.04106
G1 X103.107 Y103.493 E1.05475
G1 X102.290 Y102.974 E1.06844
G1 X101.627 Y102.269 E1.08213
G1 X101.161 Y101.421 E1.09582
G1 X100.921 Y100.484 E1.10951
G1 X100.921 Y99.516 E1.12319
G1 X101.161 Y98.579 E1.13688
G1 X101.627 Y97.731 E1.15057
G1 X102.290 Y97.026 E1.16426
G1 X103.106 Y96.507 E1.17795
G1 X104.027 Y96.208 E1.19163
G1 X104.992 Y96.148 E1.20532
G1 X105.740 Y96.290 E1.21608
G1 X105.943 Y96.329 E1.21901 F1048.731
G1 X106.818 Y96.741 E1.23270
G1 X107.564 Y97.358 E1.24639
G1 X108.132 Y98.140 E1.26007
G1 X108.489 Y99.040 E1.27376
G1 X108.610 Y100.000 E1.28745
G1 X108.489 Y100.960 E1.30114
G1 X108.132 Y101.860 E1.31483
G1 X107.564 Y102.642 E1.32851
G1 X106.876 Y103.211 E1.34114
G1 X106.548 Y102.834 F7800.000
G1 X105.787 Y103.192 E1.35304 F1048.731
G1 X104.961 Y103.349 E1.36494
G1 X104.121 Y103.297 E1.37684
G1 X103.321 Y103.037 E1.38875
G1 X102.611 Y102.586 E1.40065
G1 X102.035 Y101.973 E1.41255
G1 X101.630 Y101.235 E1.42445
G1 X101.421 Y100.421 E1.43635
G1 X101.421 Y99.579 E1.44825
G1 X101.630 Y98.765 E1.46015
G1 X102.035 Y98.027 E1.47205
G1 X102.611 Y97.414 E1.48395
G1 X103.321 Y96.963 E1.49585
G1 X104.121 Y96.703 E1.50775
G1 X104.817 Y96.660 E1.51762
G1 X104.961 Y96.651 E1.51966 F1048.731
G1 X105.787 Y96.808 E1.53156
G1 X106.548 Y97.166 E1.54346
G1 X107.196 Y97.703 E1.55536
G1 X107.691 Y98.383 E1.56726
G1 X108.001 Y99.165 E1.57916
G1 X108.106 Y100.000 E1.59106
G1 X108.001 Y100.835 E1.60296
G1 X107.691 Y101.617 E1.61486
G1 X107.196 Y102.297 E1.62676
G1 X106.606 Y102.786 E1.63760
G1 X106.278 Y102.408 F7800.000
G1 X105.631 Y102.712 E1.64772 F734.112
G1 X104.929 Y102.846 E1.65783
G1 X104.216 Y102.801 E1.66795
G1 X103.536 Y102.581 E1.67806
G1 X102.932 Y102.197 E1.68817
G1 X102.443 Y101.676 E1.69829
G1 X102.098 Y101.050 E1.70840
G1 X101.921 Y100.357 E1.71851
G1 X101.921 Y99.643 E1.72863
G1 X102.098 Y98.950 E1.73874
G1 X102.443 Y98.324 E1.74885
G1 X102.932 Y97.803 E1.75897
G1 X103.536 Y97.419 E1.76908
G1 X104.216 Y97.199 E1.77920
G1 X104.929 Y97.154 E1.78931
G1 X105.552 Y97.273 E1.79829
G1 X105.631 Y97.288 E1.79942 F734.112
G1 X106.278 Y97.592 E1.80954
G1 X106.829 Y98.048 E1.81965
G1 X107.249 Y98.626 E1.82976
G1 X107.512 Y99.291 E1.83988
G1 X107.602 Y100.000 E1.84999
G1 X107.512 Y100.709 E1.86011
G1 X107.249 Y101.374 E1.87022
G1 X106.829 Y101.952 E1.88033
G1 X106.336 Y102.360 E1.88939
G1 F1800.000 E0.88939
G92 E0
G1 X105.555 Y97.192 F7800.000
G1 X110.000 Y108.750 F7800.000
G1 E1.00000 F1800.000
G1 X90.000 Y108.750 E1.28294 F1048.731
G1 X90.000 Y91.250 E1.53052
G1 X110.000 Y91.250 E1.81346
G1 X110.000 Y108.675 E2.05997
G1 X110.500 Y109.250 F7800.000
G1 X89.500 Y109.250 E2.35706 F1048.731
G1 X89.500 Y90.750 E2.61878
G1 X110.500 Y90.750 E2.91587
G1 X110.500 Y109.175 E3.17653
G1 X111.000 Y109.750 F7800.000
G1 X89.000 Y109.750 E3.48777 F734.112
G1 X89.000 Y90.250 E3.76364
G1 X111.000 Y90.250 E4.07487
G1 X111.000 Y109.675 E4.34968
G1 X110.567 Y109.500 F7800.000
G1 X109.549 Y108.259 F7800.000
G1 X109.509 Y108.299 E4.35097 F2097.462
G1 X108.360 Y108.299 E4.37721
G1 X109.549 Y107.110 E4.41560
G1 X109.549 Y105.961 E4.44184
G1 X107.211 Y108.299 E4.51734
G1 X106.062 Y108.299 E4.54358
G1 X109.549 Y104.812 E4.65618
G1 X109.549 Y103.663 E4.68242
G1 X104.913 Y108.299 E4.83212
G1 X103.765 Y108.299 E4.85836
G1 X109.549 Y102.515 E5.04517
G1 X109.549 Y101.366 E5.07141
G1 X102.616 Y108.299 E5.29532
G1 X101.467 Y108.299 E5.32156
G1 X105.563 Y104.202 E5.45386
G1 X104.353 Y104.264 E5.48154
G1 X100.318 Y108.299 E5.61185
G1 X99.169 Y108.299 E5.63809
G1 X103.405 Y104.063 E5.77488
G1 X102.609 Y103.711 E5.79476
G1 X98.020 Y108.299 E5.94295
G1 X96.871 Y108.299 E5.96919
G1 X101.925 Y103.245 E6.13241
G1 X101.369 Y102.652 E6.15097
G1 X95.722 Y108.299 E6.33333
G1 X94.573 Y108.299 E6.35957
G1 X100.932 Y101.940 E6.56493
G1 X100.615 Y101.108 E6.58526
G1 X93.424 Y108.299 E6.81749
G1 X92.275 Y108.299 E6.84373
G1 X100.470 Y100.105 E7.10836
G1 X100.644 Y98.782 E7.13883
G1 X91.126 Y108.299 E7.44618
G1 X90.451 Y107.826 E7.46501
G1 X106.576 Y91.701 E7.98576
G1 X105.427 Y91.701 E8.01200
G1 X90.451 Y106.677 E8.49564
G1 X90.451 Y105.528 E8.52187
G1 X104.278 Y91.701 E8.96841
G1 X103.129 Y91.701 E8.99465
G1 X90.451 Y104.379 E9.40408
G1 X90.451 Y103.230 E9.43032
G1 X101.980 Y91.701 E9.80265
G1 X100.831 Y91.701 E9.82888
G1 X90.451 Y102.081 E10.16411
G1 X90.451 Y100.932 E10.19035
G1 X99.682 Y91.701 E10.48847
G1 X98.533 Y91.701 E10.51470
G1 X90.451 Y99.783 E10.77572
G1 X90.451 Y98.634 E10.80196
G1 X97.384 Y91.701 E11.02587
G1 X96.235 Y91.701 E11.05211
G1 X90.451 Y97.485 E11.23892
G1 X90.451 Y96.337 E11.26516
G1 X95.087 Y91.701 E11.41486
G1 X93.938 Y91.701 E11.44110
G1 X90.451 Y95.188 E11.55370
G1 X90.451 Y94.039 E11.57994
G1 X92.789 Y91.701 E11.65544
G1 X91.640 Y91.701 E11.68168
G1 X90.451 Y92.890 E11.72007
G1 X90.451 Y91.741 E11.74631
G1 X90.491 Y91.701 E11.74760
G1 X103.530 Y95.896 F7800.000
G1 X107.725 Y91.701 E11.88308 F2097.462
G1 X108.874 Y91.701 E11.90931
G1 X104.871 Y95.704 E12.03858
G1 X105.868 Y95.856 E12.06160
G1 X109.549 Y92.174 E12.18049
G1 X109.549 Y93.323 E12.20673
G1 X106.690 Y96.182 E12.29906
G1 X107.391 Y96.630 E12.31806
G1 X109.549 Y94.472 E12.38775
G1 X109.549 Y95.621 E12.41398
G1 X107.991 Y97.179 E12.46430
G1 X108.475 Y97.844 E12.48308
G1 X109.549 Y96.770 E12.51778
G1 X109.549 Y97.919 E12.54401
G1 X108.819 Y98.649 E12.56760
G1 X109.549 Y99.068 E12.58682
G1 X109.014 Y99.603 E12.60410
G1 X109.549 Y100.217 E12.62269
G1 X108.963 Y100.803 E12.64162
G1 F1800.000 E11.64162
G92 E0
G1 Z0.600 F7800.000
G1 X106.818 Y103.259 F7800.000
G1 E1.00000 F1800.000
G1 X105.943 Y103.671 E1.01369 F1048.389
G1 X104.992 Y103.852 E1.02738
G1 X104.027 Y103.792 E1.04106
G1 X103.107 Y103.493 E1.05475
G1 X102.290 Y102.974 E1.06844
G1 X101.627 Y102.269 E1.08213
G1 X101.161 Y101.421 E1.09582
G1 X100.921 Y100.484 E1.10950
G1 X100.921 Y99.516 E1.12319
G1 X101.161 Y98.579 E1.13688
G1 X101.627 Y97.731 E1.15057
G1 X102.290 Y97.026 E1.16426
G1 X103.107 Y96.507 E1.17795
G1 X104.027 Y96.208 E1.19163
G1 X104.992 Y96.148 E1.20532
G1 X105.943 Y96.329 E1.21901
G1 X106.818 Y96.741 E1.23270 F1048.389
G1 X107.564 Y97.358 E1.24639
G1 X108.132 Y98.140 E1.26007
G1 X108.489 Y99.040 E1.27376
G1 X108.610 Y100.000 E1.28745
G1 X108.489 Y100.960 E1.30114
G1 X108.132 Y101.860 E1.31483
G1 X107.564 Y102.642 E1.32851
G1 X106.876 Y103.211 E1.34114
G1 X106.548 Y102.834 F7800.000
G1 X105.787 Y103.192 E1.35304 F1048.389
G1 X104.961 Y103.349 E1.36494
G1 X104.121 Y103.297 E1.37684
G1 X103.321 Y103.037 E1.38875
G1 X102.611 Y102.586 E1.40065
G1 X102.035 Y101.973 E1.41255
G1 X101.630 Y101.235 E1.42445
G1 X101.421 Y100.421 E1.43635
G1 X101.421 Y99.579 E1.44825
G1 X101.630 Y98.765 E1.46015
G1 X102.035 Y98.027 E1.47205
G1 X102.611 Y97.414 E1.48395
G1 X103.321 Y96.963 E1.49585
G1 X104.121 Y96.703 E1.50775
G1 X104.961 Y96.651 E1.51966 F1048.389
G1 X105.787 Y96.808 E1.53156
G1 X106.548 Y97.166 E1.54346
G1 X107.196 Y97.703 E1.55536
G1 X107.691 Y98.383 E1.56726
G1 X108.001 Y99.165 E1.57916
G1 X108.106 Y100.000 E1.59106
G1 X108.001 Y100.835 E1.60296
G1 X107.691 Y101.617 E1.61486
G1 X107.196 Y102.297 E1.62676
G1 X106.606 Y102.786 E1.63760
G1 X106.278 Y102.408 F7800.000
G1 X105.631 Y102.712 E1.64772 F733.872
G1 X104.929 Y102.846 E1.65783
G1 X104.216 Y102.801 E1.66795
G1 X103.536 Y102.581 E1.67806
G1 X102.932 Y102.197 E1.68817
G1 X102.443 Y101.676 E1.69829
G1 X102.098 Y101.050 E1.70840
G1 X101.921 Y100.357 E1.71851
G1 X101.921 Y99.643 E1.72863
G1 X102.098 Y98.950 E1.73874
G1 X102.443 Y98.324 E1.74885
G1 X102.932 Y97.803 E1.75897
G1 X103.536 Y97.419 E1.76908
G1 X104.216 Y97.199 E1.77920
G1 X104.929 Y97.154 E1.78931
G1 X105.631 Y97.288 E1.79942
G1 X106.278 Y97.592 E1.80954 F733.872
G1 X106.829 Y98.048 E1.81965
G1 X107.249 Y98.626 E1.82976
G1 X107.512 Y99.291 E1.83988
G1 X107.602 Y100.000 E1.84999
G1 X107.512 Y100.709 E1.86011
G1 X107.249 Y101.374 E1.87022
G1 X106.829 Y101.952 E1.88033
G1 X106.336 Y102.360 E1.88939
G1 F1800.000 E0.88939
G92 E0
G1 X105.735 Y96.799 F7800.000
G1 X110.000 Y108.750 F7800.000
G1 E1.00000 F1800.000
G1 X90.000 Y108.750 E1.28294 F1048.389
G1 X90.000 Y91.250 E1.53052
G1 X110.000 Y91.250 E1.81346
G1 X110.000 Y108.675 E2.05997
G1 X110.500 Y109.250 F7800.000
G1 X89.500 Y109.250 E2.35706 F1048.389
G1 X89.500 Y90.750 E2.61878
G1 X110.500 Y90.750 E2.91587
G1 X110.500 Y109.175 E3.17653
G1 X111.000 Y109.750 F7800.000
G1 X89.000 Y109.750 E3.48777 F733.872
G1 X89.000 Y90.250 E3.76364
G1 X111.000 Y90.250 E4.07487
G1 X111.000 Y109.675 E4.34968
G1 X110.567 Y109.500 F7800.000
G1 X109.509 Y91.701 F7800.000
G1 X109.549 Y91.741 E4.35097 F2096.777
G1 X109.549 Y92.890 E4.37721
G1 X108.360 Y91.701 E4.41560
G1 X107.211 Y91.701 E4.44184
G1 X109.549 Y94.039 E4.51734
G1 X109.549 Y95.188 E4.54358
G1 X106.062 Y91.701 E4.65618
G1 X104.913 Y91.701 E4.68242
G1 X109.549 Y96.337 E4.83212
G1 X109.549 Y97.485 E4.85836
G1 X103.765 Y91.701 E5.04517
G1 X102.616 Y91.701 E5.07141
G1 X109.549 Y98.634 E5.29532
G1 X108.963 Y99.197 E5.31388
G1 X109.549 Y99.783 E5.33281
G1 X109.014 Y100.397 E5.35140
G1 X109.549 Y100.932 E5.36868
G1 X108.819 Y101.351 E5.38790
G1 X109.549 Y102.081 E5.41149
